X:1
T:The Jolly Labouring Boy
M:6/8
L:1/8
K:C
 C| D2 DE-D C D2 D|E-F G A2 AB-A G|
M:9/8
 A3 z2 zA-B c| d3- d2 ee-c A|
M:6/8
 A2- GE-D E| G2 E D2 D| D3 z2 D| D2 D EDC| D2 D DEG| A2 AB-A G|
M:9/8
 A3 z2 zA-B c| d3- d2 ed-c A|
M:6/8
 A2 GE-D E| G2 E D2 D| D3 z2||
